X: 316
T: DRIMOLEAGUE FAIR
T: Aonach druim-da-leac
B: O'Neill's 316
M: 3/4
L: 1/8
Z: 1999 by John Chambers <jc@trillian.mit.edu>
N: "Moderate"
N: "Collected by F.O'Neill"
N: Now usually known as "Danny Boy"
K:G
.F (GA) \
| B3A BedB | AGE2 zG (Bc) | d3e dBGB | A4 z.F (GA) |
| B3A (Be)(dB) | AGED EFGA | B3c (BA)GA | G4 z ||
|| (.d .e.f) \
| g3f (fe)dB | (dBG2) z(.d .e.f) | g3f (fe)(dB) | A4 z(.d .d.d) |
| b3a (ag)(eg) | dBG2 z.F (GA) | (Be)(dB) (AG).E.F | G4- G ||


